/* XPM */
static char * terminal_xpm[] = {
"32 32 140 1",
"  c None",
". c #444444",
"+ c #3D3D3D",
"@ c #40403B",
"# c #404040",
"$ c #403B3B",
"% c #3B3B3B",
"& c #3C3C3C",
"* c #464646",
"= c #373737",
"A c #2C2B2B",
"B c #252524",
"C c #222221",
"D c #222121",
"E c #212121",
"F c #2D2D2B",
"G c #393939",
"H c #303030",
"I c #202020",
"J c #181817",
"K c #171716",
"L c #171616",
"M c #161616",
"N c #212120",
"O c #333232",
"P c #313030",
"Q c #1D1D1D",
"R c #181717",
"S c #171717",
"T c #1E1E1D",
"U c #313131",
"V c #222222",
"W c #232222",
"X c #3D3D39",
"Y c #2E2E2E",
"Z c #1A1919",
". c #1A1A19",
"+ c #2F2F2F",
"@ c #272727",
"# c #282828",
"$ c #262424",
"% c #262525",
"& c #212020",
"* c #1C1C1C",
"= c #151414",
"A c #181818",
"B c #262624",
"C c #1B1A1A",
"D c #B9B9B9",
"E c #B9B8B8",
"F c #272626",
"G c #131313",
"H c #262626",
"I c #161615",
"J c #9C9B9B",
"K c #FEFDFD",
"L c #BCBBBC",
"M c #252525",
"N c #151515",
"O c #191919",
"P c #9F9F9F",
"Q c #FCFCFC",
"R c #BABABA",
"S c #242423",
"T c #141413",
"U c #191918",
"V c #A0A0A0",
"W c #B6B6B6",
"X c #151514",
"Y c #9B9B9B",
"Z c #F7F6F6",
". c #B1B0B1",
"+ c #1F1F1F",
"@ c #0C0C0C",
"# c #515151",
"$ c #EDECEC",
"% c #E8E8E8",
"& c #363535",
"* c #141414",
"= c #0E0E0E",
"A c #505050",
"B c #E3E3E3",
"C c #EAE9EA",
"D c #605F5F",
"E c #0F0F0E",
"F c #555555",
"G c #E8E7E7",
"H c #575757",
"I c #0F0F0F",
"J c #121212",
"K c #0F0E0E",
"L c #111010",
"M c #5E5D5D",
"N c #EBEBEB",
"O c #E2E2E2",
"P c #4E4E4E",
"Q c #848484",
"R c #818181",
"S c #818180",
"T c #818080",
"U c #848383",
"V c #666666",
"W c #242424",
"X c #CECECE",
"Y c #DEDDDD",
"Z c #454545",
". c #ACACAC",
"+ c #F2F2F2",
"@ c #ECECEC",
"# c #F0F0F0",
"$ c #CCCCCC",
"% c #161515",
"& c #424141",
"* c #111111",
"= c #363635",
"A c #353434",
"B c #353535",
"C c #353534",
"D c #363636",
"E c #292929",
"F c #131212",
"G c #141313",
"H c #262625",
"I c #2A2A29",
"J c #323131",
"K c #1C1B1B",
"L c #1C1C1B",
"M c #434343",
"N c #272726",
"O c #3E3E3E",
"P c #242323",
"Q c #383838",
"R c #282827",
"S c #1E1D1D",
"T c #2E2E2D",
"U c #2A2A2A",
"V c #292928",
"W c #2A2A28",
"X c #2B2A2A",
"Y c #2D2D2D",
"                                ",
"       .+@@##$@#@#@$$%@&*       ",
"     =ABCDEEEEEEEEEEEEEDBFG     ",
"    HIJKKKKLMMLLMMMMMMMMMJNO    ",
"   PQLRRJJRSSSSSSSSSKKKKSSMTU   ",
"  GVKJRRJJRRSSSSSSKKLLKKKSSMWX  ",
"  YZRRJRSRRSSSSSSKKKLLLLMLSS.+  ",
"  @SRRRRRRJJRRSSSKKLLKKLMLKSK#  ",
"  $SJJJRJLKJJRSSSKKKLKKLMLKSK%  ",
"  $SJRRJL&*=AJSSSKKLLKKLMLKSK%  ",
"  BKRRRKCDEFGASSSKLKLLLLMMKSKH  ",
"  BSJSSKIJKLMGAJSSKKLLKKLMKSKH  ",
"  HSJSSSNOPQRSTAJSSKKLKKLLSSKH  ",
"  BSJRSSS=UVQWCXAJSSSSKKLKSSKH  ",
"  BSJSSKSSXOYZ.+KJRSSSSSSKSRKH  ",
"  BSJRSSSRJ@#$%&*AJJRSRSSSSRSH  ",
"  BSRSSSRR=ABCDTAAAAJAJRRSSRSH  ",
"  BKSSSSJEFGGHIJKIEEE=LJRSSSKH  ",
"  $KSSSSGMNOPENFQRSTTUVUSRSRKH  ",
"  WSJSSMCXYZIS*.+@$@@#$EMJSSKH  ",
"  BSRSSS%&&*JRMS=ABACDEKJJSRSH  ",
"  $KRSSSSFGJRSSITT*TTGNJRJSRKH  ",
"  HKSSSKSSSSKSSSSSSSSSSSSSSSKH  ",
"  ESRRSSSSSKKKLKSSSKKKSSSSSRRI  ",
"  JKSJRSSSSSSSKKKKSSKKKSSSSSLU  ",
"  MNKJJRRRSSSSSSKSSSSSSSSSSKNO  ",
"   =PKSJJJRSSSSSSSRRRRSRSKKSG   ",
"    QRSOJJJJRJJJJJJAJJJJUSEQ    ",
"      DTUEUVEEEEWVWUWVVXYB      ",
"                                ",
"                                ",
"                                "
};
